packages/core/src/svgs/wallets/branded/sender.svg

<svg width="24" height="24" viewBox="0 0 24 24" fill="none" xmlns="http://www.w3.org/2000/svg">
<path fill-rule="evenodd" clip-rule="evenodd" d="M15.1222 10.285C15.4165 10.3936 15.6868 10.5354 15.9269 10.7098C16.2463 10.9418 16.5123 11.2316 16.7095 11.5779C16.8109 11.7559 16.8904 11.9424 16.9488 12.1355C17.0079 12.3301 17.0457 12.5313 17.063 12.7374C17.1852 14.1868 16.2999 15.8722 14.7243 17.1242L14.6532 17.18C14.3792 17.3927 14.0849 17.5924 13.772 17.7755L6.55638 22C6.34464 20.5795 6.73523 19.1205 7.62822 17.9957C8.01426 17.5092 8.49424 17.0853 9.06014 16.754L13.2752 14.2863C13.8497 13.95 14.2149 13.3878 14.3234 12.7763C14.4097 12.29 14.3339 11.7727 14.0719 11.3127C13.8613 10.9428 13.5589 10.66 13.2101 10.4765C12.8136 10.2676 12.3571 10.1871 11.9075 10.253C11.9329 10.2408 11.9584 10.2291 11.984 10.2178C12.3665 10.1219 12.7444 10.0609 13.1112 10.0344C13.8432 9.98171 14.531 10.0665 15.1222 10.285ZM17.4436 2C17.6554 3.42053 17.2648 4.87953 16.3718 6.00434C15.9857 6.49079 15.5058 6.91466 14.9399 7.24597L10.7248 9.71372C10.1503 10.05 9.78515 10.6122 9.67663 11.2237C9.59026 11.71 9.66615 12.2273 9.92806 12.6873C10.1387 13.0572 10.4411 13.34 10.7899 13.5235C11.1864 13.7324 11.6429 13.8129 12.0925 13.747C12.0671 13.7592 12.0416 13.7709 12.016 13.7822C11.6335 13.8781 11.2556 13.9391 10.8888 13.9656C10.1567 14.0183 9.46904 13.9335 8.87777 13.715C8.58348 13.6065 8.31321 13.4646 8.07313 13.2902C7.75365 13.0582 7.48767 12.7684 7.29051 12.4221C7.18912 12.2441 7.10955 12.0576 7.05115 11.8645C6.99209 11.67 6.9543 11.4687 6.93702 11.2626C6.81481 9.81323 7.70014 8.12783 9.27568 6.87582L9.34681 6.81995C9.62082 6.60732 9.91512 6.40763 10.228 6.22446L17.4436 2Z" fill="#2E79DF"/>
</svg>

<svg xmlns="http://www.w3.org/2000/svg" width="24" height="24" fill="none" viewBox="0 0 24 24">
    <path fill="#2E79DF" fill-rule="evenodd" d="M15.122 10.285q.443.163.805.425a2.75 2.75 0 0 1 1.022 1.425q.089.293.114.602c.122 1.45-.763 3.135-2.339 4.387l-.07.056a8 8 0 0 1-.882.596L6.556 22a5.22 5.22 0 0 1 1.072-4.004 5.1 5.1 0 0 1 1.432-1.242l4.215-2.468c.575-.336.94-.898 1.048-1.51a2.18 2.18 0 0 0-.251-1.463 2.13 2.13 0 0 0-2.164-1.06l.076-.035a6.6 6.6 0 0 1 1.127-.184c.732-.052 1.42.032 2.011.251M17.444 2a5.22 5.22 0 0 1-1.072 4.004 5.1 5.1 0 0 1-1.432 1.242l-4.215 2.468c-.575.336-.94.898-1.048 1.51a2.18 2.18 0 0 0 .251 1.463 2.13 2.13 0 0 0 2.164 1.06l-.076.035a6.6 6.6 0 0 1-1.127.184c-.732.052-1.42-.032-2.011-.251a3.3 3.3 0 0 1-.805-.425 2.75 2.75 0 0 1-1.022-1.425 3 3 0 0 1-.114-.602c-.122-1.45.763-3.135 2.339-4.387l.07-.056q.413-.32.882-.596z" clip-rule="evenodd"/>
</svg>
